packages/plugin-spoiler/web/src/icons/spoilerIcon.svg

<svg
  width="19px"
  height="19px"
  viewBox="0 0 19 19"
  version="1.1"
  xmlns="http://www.w3.org/2000/svg"
>
  <g stroke="none" strokeWidth="1" fill="none" fillRule="evenodd">
    <g transform="translate(-2144.000000, -748.000000)" fill="currentColor" fillRule="nonzero">
      <g transform="translate(2144.000000, 748.000000)">
        <path d="M9.5,2 C10.2187824,2 10.819483,2.50556773 10.9659009,3.18050205 C13.2914419,3.76237692 15,5.69979977 15,8 L15,14 C15,14.5522847 14.5075132,15 13.9,15 L11.9499027,15.0004345 C11.7180997,16.1413382 10.7093254,17 9.5,17 C8.29067455,17 7.28190033,16.1413382 7.05009729,15.0004345 L5.1,15 C4.49248678,15 4,14.5522847 4,14 L4,8 C4,5.69979977 5.7085581,3.76237692 8.03488951,3.17935401 C8.18051695,2.50556773 8.78121764,2 9.5,2 Z M10.9143985,15.000703 L8.08560151,15.000703 C8.29171807,15.5829319 8.8471533,16 9.5,16 C10.1528467,16 10.7082819,15.5829319 10.9143985,15.000703 Z M9.5,4 C7.01471863,4 5,5.78979527 5,7.99761963 L5,14 L14,14 L14,7.99761963 C14,5.78979527 11.9852814,4 9.5,4 Z" />
      </g>
    </g>
  </g>
</svg>

<svg width="19" height="19" viewBox="0 0 19 19" xmlns="http://www.w3.org/2000/svg">
  <path d="M9.5 2a1.5 1.5 0 011.466 1.18C13.29 3.763 15 5.7 15 8v6c0 .552-.492 1-1.1 1h-1.95a2.5 2.5 0 01-4.9 0H5.1c-.608 0-1.1-.448-1.1-1V8c0-2.3 1.709-4.238 4.035-4.82A1.5 1.5 0 019.5 2zm1.414 13H8.086a1.5 1.5 0 002.828 0zM9.5 4C7.015 4 5 5.79 5 7.998V14h9V7.998C14 5.79 11.985 4 9.5 4z" fill="currentColor"/>
</svg>
